images/50149090.svg

<?xml version="1.0" encoding="UTF-8"?>
<svg xmlns="http://www.w3.org/2000/svg" xmlns:xlink="http://www.w3.org/1999/xlink" width="300pt" height="300pt" viewBox="0 0 300 300" version="1.1">
<defs>
<g>
<symbol overflow="visible" id="glyph0-0">
<path style="stroke:none;" d="M 0.453125 1.59375 L 0.453125 -6.34375 L 4.953125 -6.34375 L 4.953125 1.59375 Z M 0.953125 1.09375 L 4.453125 1.09375 L 4.453125 -5.84375 L 0.953125 -5.84375 Z M 0.953125 1.09375 "/>
</symbol>
<symbol overflow="visible" id="glyph0-1">
<path style="stroke:none;" d="M 0.890625 -6.5625 L 2.078125 -6.5625 L 4.984375 -1.078125 L 4.984375 -6.5625 L 5.84375 -6.5625 L 5.84375 0 L 4.65625 0 L 1.75 -5.484375 L 1.75 0 L 0.890625 0 Z M 0.890625 -6.5625 "/>
</symbol>
<symbol overflow="visible" id="glyph0-2">
<path style="stroke:none;" d="M 3.546875 -5.953125 C 2.898438 -5.953125 2.382812 -5.710938 2 -5.234375 C 1.625 -4.753906 1.4375 -4.101562 1.4375 -3.28125 C 1.4375 -2.445312 1.625 -1.789062 2 -1.3125 C 2.382812 -0.832031 2.898438 -0.59375 3.546875 -0.59375 C 4.191406 -0.59375 4.703125 -0.832031 5.078125 -1.3125 C 5.453125 -1.789062 5.640625 -2.445312 5.640625 -3.28125 C 5.640625 -4.101562 5.453125 -4.753906 5.078125 -5.234375 C 4.703125 -5.710938 4.191406 -5.953125 3.546875 -5.953125 Z M 3.546875 -6.6875 C 4.460938 -6.6875 5.195312 -6.375 5.75 -5.75 C 6.300781 -5.132812 6.578125 -4.3125 6.578125 -3.28125 C 6.578125 -2.238281 6.300781 -1.410156 5.75 -0.796875 C 5.195312 -0.179688 4.460938 0.125 3.546875 0.125 C 2.617188 0.125 1.878906 -0.179688 1.328125 -0.796875 C 0.773438 -1.410156 0.5 -2.238281 0.5 -3.28125 C 0.5 -4.3125 0.773438 -5.132812 1.328125 -5.75 C 1.878906 -6.375 2.617188 -6.6875 3.546875 -6.6875 Z M 3.546875 -6.6875 "/>
</symbol>
<symbol overflow="visible" id="glyph0-3">
<path style="stroke:none;" d="M 0.890625 -6.5625 L 1.765625 -6.5625 L 1.765625 -3.875 L 5 -3.875 L 5 -6.5625 L 5.890625 -6.5625 L 5.890625 0 L 5 0 L 5 -3.125 L 1.765625 -3.125 L 1.765625 0 L 0.890625 0 Z M 0.890625 -6.5625 "/>
</symbol>
<symbol overflow="visible" id="glyph0-4">
<path style="stroke:none;" d="M 5.796875 -6.0625 L 5.796875 -5.125 C 5.492188 -5.394531 5.171875 -5.597656 4.828125 -5.734375 C 4.492188 -5.878906 4.140625 -5.953125 3.765625 -5.953125 C 3.015625 -5.953125 2.4375 -5.722656 2.03125 -5.265625 C 1.632812 -4.804688 1.4375 -4.144531 1.4375 -3.28125 C 1.4375 -2.414062 1.632812 -1.753906 2.03125 -1.296875 C 2.4375 -0.835938 3.015625 -0.609375 3.765625 -0.609375 C 4.140625 -0.609375 4.492188 -0.675781 4.828125 -0.8125 C 5.171875 -0.945312 5.492188 -1.15625 5.796875 -1.4375 L 5.796875 -0.5 C 5.484375 -0.289062 5.15625 -0.132812 4.8125 -0.03125 C 4.46875 0.0703125 4.097656 0.125 3.703125 0.125 C 2.710938 0.125 1.929688 -0.175781 1.359375 -0.78125 C 0.785156 -1.394531 0.5 -2.226562 0.5 -3.28125 C 0.5 -4.332031 0.785156 -5.160156 1.359375 -5.765625 C 1.929688 -6.378906 2.710938 -6.6875 3.703125 -6.6875 C 4.097656 -6.6875 4.46875 -6.632812 4.8125 -6.53125 C 5.164062 -6.425781 5.492188 -6.269531 5.796875 -6.0625 Z M 5.796875 -6.0625 "/>
</symbol>
<symbol overflow="visible" id="glyph0-5">
<path style="stroke:none;" d="M 0.84375 -6.84375 L 1.65625 -6.84375 L 1.65625 0 L 0.84375 0 Z M 0.84375 -6.84375 "/>
</symbol>
</g>
</defs>
<g id="surface3165">
<rect x="0" y="0" width="300" height="300" style="fill:rgb(100%,100%,100%);fill-opacity:1;stroke:none;"/>
<path style="fill:none;stroke-width:1.2;stroke-linecap:butt;stroke-linejoin:miter;stroke:rgb(0%,0%,100%);stroke-opacity:1;stroke-miterlimit:10;" d="M 232.277344 152.074219 L 238.050781 158.113281 "/>
<path style="fill:none;stroke-width:1.2;stroke-linecap:butt;stroke-linejoin:miter;stroke:rgb(0%,0%,0%);stroke-opacity:1;stroke-miterlimit:10;" d="M 238.050781 158.113281 L 243.828125 164.152344 "/>
<path style="fill:none;stroke-width:1.2;stroke-linecap:butt;stroke-linejoin:miter;stroke:rgb(0%,0%,100%);stroke-opacity:1;stroke-miterlimit:10;" d="M 232.277344 152.074219 L 224.15625 154.058594 "/>
<path style="fill:none;stroke-width:1.2;stroke-linecap:butt;stroke-linejoin:miter;stroke:rgb(0%,0%,0%);stroke-opacity:1;stroke-miterlimit:10;" d="M 224.15625 154.058594 L 216.039062 156.039062 "/>
<path style="fill:none;stroke-width:1.2;stroke-linecap:butt;stroke-linejoin:miter;stroke:rgb(0%,0%,0%);stroke-opacity:1;stroke-miterlimit:10;" d="M 236.960938 136.03125 L 234.617188 144.050781 "/>
<path style="fill:none;stroke-width:1.2;stroke-linecap:butt;stroke-linejoin:miter;stroke:rgb(0%,0%,100%);stroke-opacity:1;stroke-miterlimit:10;" d="M 234.617188 144.050781 L 232.277344 152.074219 "/>
<path style=" stroke:none;fill-rule:nonzero;fill:rgb(100%,100%,100%);fill-opacity:1;" d="M 229.277344 146.574219 L 236.277344 146.574219 L 236.277344 157.574219 L 229.277344 157.574219 Z M 229.277344 146.574219 "/>
<g style="fill:rgb(0%,0%,100%);fill-opacity:1;">
  <use xlink:href="#glyph0-1" x="229.277344" y="155.237305"/>
</g>
<path style="fill:none;stroke-width:1.2;stroke-linecap:butt;stroke-linejoin:miter;stroke:rgb(0%,0%,0%);stroke-opacity:1;stroke-miterlimit:10;" d="M 243.828125 164.152344 L 260.066406 160.1875 "/>
<path style="fill:none;stroke-width:1.2;stroke-linecap:butt;stroke-linejoin:miter;stroke:rgb(0%,0%,0%);stroke-opacity:1;stroke-miterlimit:10;" d="M 260.066406 160.1875 L 262.40625 152.164062 "/>
<path style="fill:none;stroke-width:1.2;stroke-linecap:butt;stroke-linejoin:miter;stroke:rgb(100%,0%,0%);stroke-opacity:1;stroke-miterlimit:10;" d="M 262.40625 152.164062 L 264.75 144.144531 "/>
<path style="fill:none;stroke-width:1.2;stroke-linecap:butt;stroke-linejoin:miter;stroke:rgb(100%,0%,0%);stroke-opacity:1;stroke-miterlimit:10;" d="M 264.75 144.144531 L 258.972656 138.105469 "/>
<path style="fill:none;stroke-width:1.2;stroke-linecap:butt;stroke-linejoin:miter;stroke:rgb(0%,0%,0%);stroke-opacity:1;stroke-miterlimit:10;" d="M 258.972656 138.105469 L 253.199219 132.0625 "/>
<path style=" stroke:none;fill-rule:nonzero;fill:rgb(100%,100%,100%);fill-opacity:1;" d="M 260.75 138.644531 L 268.75 138.644531 L 268.75 149.644531 L 260.75 149.644531 Z M 260.75 138.644531 "/>
<g style="fill:rgb(100%,0%,0%);fill-opacity:1;">
  <use xlink:href="#glyph0-2" x="260.75" y="147.307617"/>
</g>
<path style="fill:none;stroke-width:1.2;stroke-linecap:butt;stroke-linejoin:miter;stroke:rgb(0%,0%,0%);stroke-opacity:1;stroke-miterlimit:10;" d="M 253.199219 132.0625 L 236.960938 136.03125 "/>
<path style="fill:none;stroke-width:1.2;stroke-linecap:butt;stroke-linejoin:miter;stroke:rgb(0%,0%,0%);stroke-opacity:1;stroke-miterlimit:10;" d="M 238.382812 134.671875 L 232.605469 128.632812 "/>
<path style="fill:none;stroke-width:1.2;stroke-linecap:butt;stroke-linejoin:miter;stroke:rgb(100%,0%,0%);stroke-opacity:1;stroke-miterlimit:10;" d="M 232.605469 128.632812 L 226.828125 122.589844 "/>
<path style="fill:none;stroke-width:1.2;stroke-linecap:butt;stroke-linejoin:miter;stroke:rgb(0%,0%,0%);stroke-opacity:1;stroke-miterlimit:10;" d="M 235.539062 137.390625 L 229.761719 131.347656 "/>
<path style="fill:none;stroke-width:1.2;stroke-linecap:butt;stroke-linejoin:miter;stroke:rgb(100%,0%,0%);stroke-opacity:1;stroke-miterlimit:10;" d="M 229.761719 131.347656 L 223.988281 125.308594 "/>
<path style=" stroke:none;fill-rule:nonzero;fill:rgb(100%,100%,100%);fill-opacity:1;" d="M 217.40625 118.449219 L 225.40625 118.449219 L 225.40625 129.449219 L 217.40625 129.449219 Z M 217.40625 118.449219 "/>
<g style="fill:rgb(100%,0%,0%);fill-opacity:1;">
  <use xlink:href="#glyph0-2" x="217.40625" y="127.112305"/>
</g>
<path style="fill:none;stroke-width:1.2;stroke-linecap:butt;stroke-linejoin:miter;stroke:rgb(0%,0%,0%);stroke-opacity:1;stroke-miterlimit:10;" d="M 216.039062 156.039062 L 204.488281 143.960938 "/>
<path style="fill:none;stroke-width:1.2;stroke-linecap:butt;stroke-linejoin:miter;stroke:rgb(0%,0%,0%);stroke-opacity:1;stroke-miterlimit:10;" d="M 212.042969 157.550781 L 202.800781 147.886719 "/>
<path style="fill:none;stroke-width:1.2;stroke-linecap:butt;stroke-linejoin:miter;stroke:rgb(0%,0%,0%);stroke-opacity:1;stroke-miterlimit:10;" d="M 211.355469 172.082031 L 216.039062 156.039062 "/>
<path style="fill:none;stroke-width:1.2;stroke-linecap:butt;stroke-linejoin:miter;stroke:rgb(0%,0%,0%);stroke-opacity:1;stroke-miterlimit:10;" d="M 204.488281 143.960938 L 188.25 147.925781 "/>
<path style="fill:none;stroke-width:1.2;stroke-linecap:butt;stroke-linejoin:miter;stroke:rgb(0%,0%,0%);stroke-opacity:1;stroke-miterlimit:10;" d="M 188.25 147.925781 L 183.566406 163.96875 "/>
<path style="fill:none;stroke-width:1.2;stroke-linecap:butt;stroke-linejoin:miter;stroke:rgb(0%,0%,0%);stroke-opacity:1;stroke-miterlimit:10;" d="M 191.558594 150.632812 L 187.808594 163.46875 "/>
<path style="fill:none;stroke-width:1.2;stroke-linecap:butt;stroke-linejoin:miter;stroke:rgb(0%,0%,0%);stroke-opacity:1;stroke-miterlimit:10;" d="M 183.566406 163.96875 L 195.117188 176.050781 "/>
<path style="fill:none;stroke-width:1.2;stroke-linecap:butt;stroke-linejoin:miter;stroke:rgb(0%,0%,0%);stroke-opacity:1;stroke-miterlimit:10;" d="M 183.566406 163.96875 L 175.449219 165.953125 "/>
<path style="fill:none;stroke-width:1.2;stroke-linecap:butt;stroke-linejoin:miter;stroke:rgb(0%,0%,100%);stroke-opacity:1;stroke-miterlimit:10;" d="M 175.449219 165.953125 L 167.328125 167.9375 "/>
<path style="fill:none;stroke-width:1.2;stroke-linecap:butt;stroke-linejoin:miter;stroke:rgb(0%,0%,0%);stroke-opacity:1;stroke-miterlimit:10;" d="M 195.117188 176.050781 L 211.355469 172.082031 "/>
<path style="fill:none;stroke-width:1.2;stroke-linecap:butt;stroke-linejoin:miter;stroke:rgb(0%,0%,0%);stroke-opacity:1;stroke-miterlimit:10;" d="M 195.808594 171.832031 L 208.796875 168.660156 "/>
<path style="fill:none;stroke-width:1.2;stroke-linecap:butt;stroke-linejoin:miter;stroke:rgb(0%,0%,100%);stroke-opacity:1;stroke-miterlimit:10;" d="M 167.328125 167.9375 L 161.550781 161.894531 "/>
<path style="fill:none;stroke-width:1.2;stroke-linecap:butt;stroke-linejoin:miter;stroke:rgb(0%,0%,0%);stroke-opacity:1;stroke-miterlimit:10;" d="M 161.550781 161.894531 L 155.777344 155.855469 "/>
<path style=" stroke:none;fill-rule:nonzero;fill:rgb(100%,100%,100%);fill-opacity:1;" d="M 160.328125 162.4375 L 174.328125 162.4375 L 174.328125 173.4375 L 160.328125 173.4375 Z M 160.328125 162.4375 "/>
<g style="fill:rgb(0%,0%,100%);fill-opacity:1;">
  <use xlink:href="#glyph0-1" x="160.328125" y="171.100586"/>
  <use xlink:href="#glyph0-3" x="167.305664" y="171.100586"/>
</g>
<path style="fill:none;stroke-width:1.2;stroke-linecap:butt;stroke-linejoin:miter;stroke:rgb(0%,0%,0%);stroke-opacity:1;stroke-miterlimit:10;" d="M 155.777344 155.855469 L 139.539062 159.824219 "/>
<path style="fill:none;stroke-width:1.2;stroke-linecap:butt;stroke-linejoin:miter;stroke:rgb(0%,0%,0%);stroke-opacity:1;stroke-miterlimit:10;" d="M 157.664062 156.40625 L 160.007812 148.386719 "/>
<path style="fill:none;stroke-width:1.2;stroke-linecap:butt;stroke-linejoin:miter;stroke:rgb(100%,0%,0%);stroke-opacity:1;stroke-miterlimit:10;" d="M 160.007812 148.386719 L 162.347656 140.363281 "/>
<path style="fill:none;stroke-width:1.2;stroke-linecap:butt;stroke-linejoin:miter;stroke:rgb(0%,0%,0%);stroke-opacity:1;stroke-miterlimit:10;" d="M 153.890625 155.304688 L 156.230469 147.285156 "/>
<path style="fill:none;stroke-width:1.2;stroke-linecap:butt;stroke-linejoin:miter;stroke:rgb(100%,0%,0%);stroke-opacity:1;stroke-miterlimit:10;" d="M 156.230469 147.285156 L 158.574219 139.261719 "/>
<path style="fill:none;stroke-width:1.2;stroke-linecap:butt;stroke-linejoin:miter;stroke:rgb(0%,0%,0%);stroke-opacity:1;stroke-miterlimit:10;" d="M 139.539062 159.824219 L 133.761719 153.78125 "/>
<path style="fill:none;stroke-width:1.2;stroke-linecap:butt;stroke-linejoin:miter;stroke:rgb(0%,0%,100%);stroke-opacity:1;stroke-miterlimit:10;" d="M 133.761719 153.78125 L 127.988281 147.742188 "/>
<path style="fill:none;stroke-width:1.2;stroke-linecap:butt;stroke-linejoin:miter;stroke:rgb(0%,0%,100%);stroke-opacity:1;stroke-miterlimit:10;" d="M 127.988281 147.742188 L 119.867188 149.726562 "/>
<path style="fill:none;stroke-width:1.2;stroke-linecap:butt;stroke-linejoin:miter;stroke:rgb(0%,0%,0%);stroke-opacity:1;stroke-miterlimit:10;" d="M 119.867188 149.726562 L 111.75 151.710938 "/>
<path style=" stroke:none;fill-rule:nonzero;fill:rgb(100%,100%,100%);fill-opacity:1;" d="M 120.988281 142.242188 L 134.988281 142.242188 L 134.988281 153.242188 L 120.988281 153.242188 Z M 120.988281 142.242188 "/>
<g style="fill:rgb(0%,0%,100%);fill-opacity:1;">
  <use xlink:href="#glyph0-1" x="120.988281" y="150.905273"/>
  <use xlink:href="#glyph0-3" x="127.96582" y="150.905273"/>
</g>
<path style="fill:none;stroke-width:1.2;stroke-linecap:butt;stroke-linejoin:miter;stroke:rgb(0%,0%,0%);stroke-opacity:1;stroke-miterlimit:10;" d="M 109.863281 151.15625 L 107.519531 159.179688 "/>
<path style="fill:none;stroke-width:1.2;stroke-linecap:butt;stroke-linejoin:miter;stroke:rgb(100%,0%,0%);stroke-opacity:1;stroke-miterlimit:10;" d="M 107.519531 159.179688 L 105.179688 167.203125 "/>
<path style="fill:none;stroke-width:1.2;stroke-linecap:butt;stroke-linejoin:miter;stroke:rgb(0%,0%,0%);stroke-opacity:1;stroke-miterlimit:10;" d="M 113.636719 152.261719 L 111.296875 160.28125 "/>
<path style="fill:none;stroke-width:1.2;stroke-linecap:butt;stroke-linejoin:miter;stroke:rgb(100%,0%,0%);stroke-opacity:1;stroke-miterlimit:10;" d="M 111.296875 160.28125 L 108.953125 168.304688 "/>
<path style="fill:none;stroke-width:1.2;stroke-linecap:butt;stroke-linejoin:miter;stroke:rgb(0%,0%,0%);stroke-opacity:1;stroke-miterlimit:10;" d="M 111.75 151.710938 L 105.972656 145.667969 "/>
<path style="fill:none;stroke-width:1.2;stroke-linecap:butt;stroke-linejoin:miter;stroke:rgb(0%,0%,100%);stroke-opacity:1;stroke-miterlimit:10;" d="M 105.972656 145.667969 L 100.199219 139.628906 "/>
<path style=" stroke:none;fill-rule:nonzero;fill:rgb(100%,100%,100%);fill-opacity:1;" d="M 103.066406 162.253906 L 111.066406 162.253906 L 111.066406 173.253906 L 103.066406 173.253906 Z M 103.066406 162.253906 "/>
<g style="fill:rgb(100%,0%,0%);fill-opacity:1;">
  <use xlink:href="#glyph0-2" x="103.066406" y="170.916992"/>
</g>
<path style="fill:none;stroke-width:1.2;stroke-linecap:butt;stroke-linejoin:miter;stroke:rgb(0%,0%,100%);stroke-opacity:1;stroke-miterlimit:10;" d="M 100.199219 139.628906 L 92.078125 141.613281 "/>
<path style="fill:none;stroke-width:1.2;stroke-linecap:butt;stroke-linejoin:miter;stroke:rgb(0%,0%,0%);stroke-opacity:1;stroke-miterlimit:10;" d="M 92.078125 141.613281 L 83.960938 143.597656 "/>
<path style=" stroke:none;fill-rule:nonzero;fill:rgb(100%,100%,100%);fill-opacity:1;" d="M 93.199219 134.128906 L 107.199219 134.128906 L 107.199219 145.128906 L 93.199219 145.128906 Z M 93.199219 134.128906 "/>
<g style="fill:rgb(0%,0%,100%);fill-opacity:1;">
  <use xlink:href="#glyph0-1" x="93.199219" y="142.791992"/>
  <use xlink:href="#glyph0-3" x="100.176758" y="142.791992"/>
</g>
<path style="fill:none;stroke-width:1.2;stroke-linecap:butt;stroke-linejoin:miter;stroke:rgb(0%,0%,0%);stroke-opacity:1;stroke-miterlimit:10;" d="M 83.960938 143.597656 L 72.40625 131.515625 "/>
<path style="fill:none;stroke-width:1.2;stroke-linecap:butt;stroke-linejoin:miter;stroke:rgb(0%,0%,0%);stroke-opacity:1;stroke-miterlimit:10;" d="M 79.964844 145.105469 L 70.722656 135.441406 "/>
<path style="fill:none;stroke-width:1.2;stroke-linecap:butt;stroke-linejoin:miter;stroke:rgb(0%,0%,0%);stroke-opacity:1;stroke-miterlimit:10;" d="M 79.277344 159.640625 L 83.960938 143.597656 "/>
<path style="fill:none;stroke-width:1.2;stroke-linecap:butt;stroke-linejoin:miter;stroke:rgb(0%,0%,0%);stroke-opacity:1;stroke-miterlimit:10;" d="M 72.40625 131.515625 L 56.171875 135.484375 "/>
<path style="fill:none;stroke-width:1.2;stroke-linecap:butt;stroke-linejoin:miter;stroke:rgb(0%,0%,0%);stroke-opacity:1;stroke-miterlimit:10;" d="M 56.171875 135.484375 L 51.488281 151.527344 "/>
<path style="fill:none;stroke-width:1.2;stroke-linecap:butt;stroke-linejoin:miter;stroke:rgb(0%,0%,0%);stroke-opacity:1;stroke-miterlimit:10;" d="M 59.476562 138.1875 L 55.730469 151.023438 "/>
<path style="fill:none;stroke-width:1.2;stroke-linecap:butt;stroke-linejoin:miter;stroke:rgb(0%,0%,0%);stroke-opacity:1;stroke-miterlimit:10;" d="M 51.488281 151.527344 L 63.039062 163.605469 "/>
<path style="fill:none;stroke-width:1.2;stroke-linecap:butt;stroke-linejoin:miter;stroke:rgb(0%,0%,0%);stroke-opacity:1;stroke-miterlimit:10;" d="M 51.488281 151.527344 L 43.367188 153.507812 "/>
<path style="fill:none;stroke-width:1.2;stroke-linecap:butt;stroke-linejoin:miter;stroke:rgb(0%,80%,0%);stroke-opacity:1;stroke-miterlimit:10;" d="M 43.367188 153.507812 L 35.25 155.492188 "/>
<path style="fill:none;stroke-width:1.2;stroke-linecap:butt;stroke-linejoin:miter;stroke:rgb(0%,0%,0%);stroke-opacity:1;stroke-miterlimit:10;" d="M 63.039062 163.605469 L 79.277344 159.640625 "/>
<path style="fill:none;stroke-width:1.2;stroke-linecap:butt;stroke-linejoin:miter;stroke:rgb(0%,0%,0%);stroke-opacity:1;stroke-miterlimit:10;" d="M 63.730469 159.386719 L 76.71875 156.214844 "/>
<path style=" stroke:none;fill-rule:nonzero;fill:rgb(100%,100%,100%);fill-opacity:1;" d="M 25.25 149.992188 L 35.25 149.992188 L 35.25 160.992188 L 25.25 160.992188 Z M 25.25 149.992188 "/>
<g style="fill:rgb(0%,80%,0%);fill-opacity:1;">
  <use xlink:href="#glyph0-4" x="25.25" y="158.655273"/>
  <use xlink:href="#glyph0-5" x="31.763672" y="158.655273"/>
</g>
<path style=" stroke:none;fill-rule:nonzero;fill:rgb(100%,100%,100%);fill-opacity:1;" d="M 156.460938 134.3125 L 164.460938 134.3125 L 164.460938 145.3125 L 156.460938 145.3125 Z M 156.460938 134.3125 "/>
<g style="fill:rgb(100%,0%,0%);fill-opacity:1;">
  <use xlink:href="#glyph0-2" x="156.460938" y="142.975586"/>
</g>
</g>
</svg>

<svg xmlns="http://www.w3.org/2000/svg" xmlns:xlink="http://www.w3.org/1999/xlink" width="300pt" height="300pt" viewBox="0 0 300 300"><defs><symbol overflow="visible"><path d="M.453 1.594v-7.938h4.5v7.938zm.5-.5h3.5v-6.938h-3.5zm0 0"/></symbol><symbol overflow="visible" id="a"><path d="M.89-6.563H2.08l2.906 5.485v-5.484h.86V0H4.656L1.75-5.484V0H.89zm0 0"/></symbol><symbol overflow="visible" id="b"><path d="M3.547-5.953c-.65 0-1.164.242-1.547.72-.375.48-.563 1.13-.563 1.952 0 .835.188 1.49.563 1.967.383.48.898.72 1.547.72.644 0 1.156-.24 1.53-.72.376-.476.564-1.132.564-1.968 0-.822-.187-1.474-.562-1.954-.375-.477-.887-.72-1.53-.72zm0-.734c.914 0 1.648.312 2.203.937.55.617.828 1.438.828 2.47 0 1.042-.277 1.87-.828 2.483-.555.617-1.29.922-2.203.922-.93 0-1.668-.305-2.22-.922C.774-1.41.5-2.237.5-3.28c0-1.033.273-1.853.828-2.47.55-.625 1.29-.938 2.22-.938zm0 0"/></symbol><symbol overflow="visible" id="c"><path d="M.89-6.563h.876v2.688H5v-2.688h.89V0H5v-3.125H1.766V0H.89zm0 0"/></symbol><symbol overflow="visible" id="d"><path d="M5.797-6.063v.938c-.305-.27-.625-.473-.97-.61-.335-.144-.686-.218-1.06-.218-.75 0-1.33.23-1.736.687-.397.46-.592 1.12-.592 1.985 0 .866.195 1.526.593 1.983.408.46.986.688 1.736.688.375 0 .726-.066 1.062-.203.344-.132.664-.343.97-.625V-.5c-.314.21-.642.367-.986.47-.343.1-.714.155-1.11.155-.99 0-1.772-.3-2.343-.906C.784-1.396.5-2.228.5-3.28c0-1.052.285-1.88.86-2.486.57-.613 1.35-.92 2.343-.92.395-.002.766.053 1.11.155.35.104.68.26.984.468zm0 0"/></symbol><symbol overflow="visible" id="e"><path d="M.844-6.844h.812V0H.844zm0 0"/></symbol></defs><g><path fill="#fff" d="M0 0h300v300H0z"/><path d="M232.277 152.074l5.774 6.04" stroke-width="1.2" stroke="#00f" stroke-miterlimit="10" fill="none"/><path d="M238.05 158.113l5.778 6.04" stroke-width="1.2" stroke="#000" stroke-miterlimit="10" fill="none"/><path d="M232.277 152.074l-8.12 1.985" stroke-width="1.2" stroke="#00f" stroke-miterlimit="10" fill="none"/><path d="M224.156 154.06l-8.117 1.98M236.96 136.03l-2.343 8.02" stroke-width="1.2" stroke="#000" stroke-miterlimit="10" fill="none"/><path d="M234.617 144.05l-2.34 8.024" stroke-width="1.2" stroke="#00f" stroke-miterlimit="10" fill="none"/><path d="M229.277 146.574h7v11h-7zm0 0" fill="#fff"/><use xlink:href="#a" x="229.277" y="155.237" fill="#00f"/><path d="M243.828 164.152l16.238-3.964M260.066 160.188l2.34-8.024" stroke-width="1.2" stroke="#000" stroke-miterlimit="10" fill="none"/><path d="M262.406 152.164l2.344-8.02M264.75 144.145l-5.777-6.04" stroke-width="1.2" stroke="#f00" stroke-miterlimit="10" fill="none"/><path d="M258.973 138.105l-5.774-6.042" stroke-width="1.2" stroke="#000" stroke-miterlimit="10" fill="none"/><path d="M260.75 138.645h8v11h-8zm0 0" fill="#fff"/><use xlink:href="#b" x="260.75" y="147.308" fill="#f00"/><path d="M253.2 132.063l-16.24 3.968M238.383 134.672l-5.778-6.04" stroke-width="1.2" stroke="#000" stroke-miterlimit="10" fill="none"/><path d="M232.605 128.633l-5.777-6.043" stroke-width="1.2" stroke="#f00" stroke-miterlimit="10" fill="none"/><path d="M235.54 137.39l-5.778-6.042" stroke-width="1.2" stroke="#000" stroke-miterlimit="10" fill="none"/><path d="M229.762 131.348l-5.774-6.04" stroke-width="1.2" stroke="#f00" stroke-miterlimit="10" fill="none"/><path d="M217.406 118.45h8v11h-8zm0 0" fill="#fff"/><use xlink:href="#b" x="217.406" y="127.112" fill="#f00"/><path d="M216.04 156.04l-11.552-12.08M212.043 157.55l-9.242-9.663M211.355 172.082l4.684-16.043M204.488 143.96l-16.238 3.966M188.25 147.926l-4.684 16.043M191.56 150.633l-3.75 12.836M183.566 163.97l11.55 12.08M183.566 163.97l-8.117 1.983" stroke-width="1.2" stroke="#000" stroke-miterlimit="10" fill="none"/><path d="M175.45 165.953l-8.122 1.984" stroke-width="1.2" stroke="#00f" stroke-miterlimit="10" fill="none"/><path d="M195.117 176.05l16.238-3.968M195.81 171.832l12.987-3.172" stroke-width="1.2" stroke="#000" stroke-miterlimit="10" fill="none"/><path d="M167.328 167.938l-5.777-6.043" stroke-width="1.2" stroke="#00f" stroke-miterlimit="10" fill="none"/><path d="M161.55 161.895l-5.773-6.04" stroke-width="1.2" stroke="#000" stroke-miterlimit="10" fill="none"/><path d="M160.328 162.438h14v11h-14zm0 0" fill="#fff"/><g fill="#00f"><use xlink:href="#a" x="160.328" y="171.101"/><use xlink:href="#c" x="167.306" y="171.101"/></g><path d="M155.777 155.855l-16.238 3.97M157.664 156.406l2.344-8.02" stroke-width="1.2" stroke="#000" stroke-miterlimit="10" fill="none"/><path d="M160.008 148.387l2.34-8.024" stroke-width="1.2" stroke="#f00" stroke-miterlimit="10" fill="none"/><path d="M153.89 155.305l2.34-8.02" stroke-width="1.2" stroke="#000" stroke-miterlimit="10" fill="none"/><path d="M156.23 147.285l2.344-8.023" stroke-width="1.2" stroke="#f00" stroke-miterlimit="10" fill="none"/><path d="M139.54 159.824l-5.778-6.043" stroke-width="1.2" stroke="#000" stroke-miterlimit="10" fill="none"/><path d="M133.762 153.78l-5.774-6.038M127.988 147.742l-8.12 1.985" stroke-width="1.2" stroke="#00f" stroke-miterlimit="10" fill="none"/><path d="M119.867 149.727l-8.117 1.984" stroke-width="1.2" stroke="#000" stroke-miterlimit="10" fill="none"/><path d="M120.988 142.242h14v11h-14zm0 0" fill="#fff"/><g fill="#00f"><use xlink:href="#a" x="120.988" y="150.905"/><use xlink:href="#c" x="127.966" y="150.905"/></g><path d="M109.863 151.156l-2.343 8.024" stroke-width="1.2" stroke="#000" stroke-miterlimit="10" fill="none"/><path d="M107.52 159.18l-2.34 8.023" stroke-width="1.2" stroke="#f00" stroke-miterlimit="10" fill="none"/><path d="M113.637 152.262l-2.34 8.02" stroke-width="1.2" stroke="#000" stroke-miterlimit="10" fill="none"/><path d="M111.297 160.28l-2.344 8.025" stroke-width="1.2" stroke="#f00" stroke-miterlimit="10" fill="none"/><path d="M111.75 151.71l-5.777-6.042" stroke-width="1.2" stroke="#000" stroke-miterlimit="10" fill="none"/><path d="M105.973 145.668l-5.774-6.04" stroke-width="1.2" stroke="#00f" stroke-miterlimit="10" fill="none"/><path d="M103.066 162.254h8v11h-8zm0 0" fill="#fff"/><use xlink:href="#b" x="103.066" y="170.917" fill="#f00"/><path d="M100.2 139.63l-8.122 1.983" stroke-width="1.2" stroke="#00f" stroke-miterlimit="10" fill="none"/><path d="M92.078 141.613l-8.117 1.985" stroke-width="1.2" stroke="#000" stroke-miterlimit="10" fill="none"/><path d="M93.2 134.13h14v11h-14zm0 0" fill="#fff"/><g fill="#00f"><use xlink:href="#a" x="93.199" y="142.792"/><use xlink:href="#c" x="100.177" y="142.792"/></g><path d="M83.96 143.598l-11.554-12.082M79.965 145.105l-9.242-9.664M79.277 159.64L83.96 143.6M72.406 131.516l-16.234 3.968M56.172 135.484l-4.684 16.043M59.477 138.188l-3.747 12.835M51.488 151.527l11.55 12.078M51.488 151.527l-8.12 1.98" stroke-width="1.2" stroke="#000" stroke-miterlimit="10" fill="none"/><path d="M43.367 153.508l-8.117 1.984" stroke-width="1.2" stroke="#0c0" stroke-miterlimit="10" fill="none"/><path d="M63.04 163.605l16.237-3.964M63.73 159.387l12.99-3.172" stroke-width="1.2" stroke="#000" stroke-miterlimit="10" fill="none"/><path d="M25.25 149.992h10v11h-10zm0 0" fill="#fff"/><g fill="#0c0"><use xlink:href="#d" x="25.25" y="158.655"/><use xlink:href="#e" x="31.764" y="158.655"/></g><path d="M156.46 134.313h8v11h-8zm0 0" fill="#fff"/><use xlink:href="#b" x="156.461" y="142.976" fill="#f00"/></g></svg>
